!!!OTL: In dem Wirtshaus schöne Manier (3-96), S. 265
!!!id: P1069
**kern
*clefG2
*k[b-]
*F:
{8f
=1
8f
4f
4f
4e
4c
=2
4f
8g
8g
2a}
=3
{4a
4cc
4a
4f
=4
4a
4g
2f}
=5
{4a
4g
4a
4f
=6
4.cc
8b-
4a
4g}
=7
{4a
4g
4a
4f
=8
4.cc
4b-
8a
4g}
=9
{4f
4f
4e
4c
=10
4f
4g
2a}
=11
{4a
4cc
4a
4f
=12
4a
4g
2f}
==
*-
!!!minrhy: 8
!!!meters: 2/2 ]  ZZ[6
!!!cut: In dem Wirtshaus schöne Manier (3-96), S. 265
!!!reg: Lothringen
!!!trd: PINCK, Louis: Verklingende Weisen, Bd3, Metz 1933
!!!rhy1:   X_X_X_X_  X_XXX__
!!!rhy2: X_X_X_X_  X_X_X__
!!!key: P1069  08  F 2/2 ]  ZZ[6
!!!mod: SECHSTONSKALA DUR ?]  AMBITUS[8
!!!kad: 312231
!!!akz: 11_33_35_35_11_33_
!!!fot: 'a__b__c__c__av_b__
!!!for: 'a__b__c__d__b__b__
!!!fok: 'Va_^d_Sd_Sd_Va_^d_
!! PHRAS[VOLLTAKTIG]
!!!fkt: Trinklied
!! LOTH VKL
!! PR[24] 2K[13] 2G[18] 3K[5] 3G[8] 4A[3] 4Ü[0] 5A[0] 6K[0] 6G[3]
!! 7K[0] 7G[0] 8A[0] MEHR[0] SI[50] ABS[38] SR[32] SP[18]
!! ST[13] 2k[0] 2g[3] 3k[8] 3g[8] 4d[0] 4ü[0] 5d[3] 6k[5] 6g[0]
!! 7k[0] 7g[0] 8d[0] mehr[0] si[26] dm[+24] sr[3] sp[24]
!! 1F[33] 2F[46] 3F[13] 4F[0] LF[0] 2P[8] 3P[0] 4P[0] TRI[0] DF[4] AB[39]
!! TF[0] U3K[0] U3[0] U4[0] U4Ü[0] U5[3] U6K[0] U6[3] U7K[0] U7[5]
!! N1[13] N2K[0] N2[8] N3K[0] N3[31] N4[13] N4Ü[0] N5[21] N6K[0] N6[5]
!!!n7k: 0] N7[0] O1[0] O2K[0] O2[0] O3K[0] O3[0] HÖ[0
